client/resources/iconsets/breeze/src/svg/16x16/icon_rules.svg

<svg xmlns="http://www.w3.org/2000/svg" width="16" height="16" viewBox="0 0 16 16">
 <path style="fill:#6d6d70"
       d="M 1 2 C 0.446 2 0 2.446 0 3 L 0 13 C 0 13.554 0.446 14 1 14 L 7.0507812 14 C 6.9676216 13.696754 7.0092576 13.424977 7.0625 13.238281 C 7.1270281 13.012012 7.2121519 12.848623 7.2949219 12.691406 C 7.423147 12.44785 7.5403312 12.222914 7.6503906 12 L 2 12 L 2 5.1523438 L 7.4003906 9.3007812 C 7.6147192 9.4613392 7.8761792 9.5135599 8.1289062 9.4804688 C 8.2577871 8.8858855 8.4659782 8.301946 8.7988281 7.7695312 C 9.4209494 6.7744086 10.568759 6 12 6 C 12.292486 6 12.569189 6.0396494 12.835938 6.0996094 C 13.31516 6.2270343 13.677966 6.3883689 14 6.5761719 C 14.498263 6.8887002 14.9093 7.3026756 15.201172 7.7695312 C 15.688946 8.5497377 15.920483 9.4370871 16 10.3125 L 16 3 C 16 2.446 15.554 2 15 2 L 1 2 z M 3.6679688 4 L 12.332031 4 L 8 7.25 L 3.6679688 4 z M 12 7 C 9.772739 7 8.9628906 9.1222052 8.9628906 11.03125 C 8.9628906 12.743186 6.9394288 14 8.7617188 14 L 13 14 L 15.240234 14 C 17.062325 14 15.037109 12.743186 15.037109 11.03125 C 15.037109 9.1222052 14.227161 7 12 7 z M 13 14 A 1 1 0 0 0 12 15 A 1 1 0 0 0 13 16 A 1 1 0 0 0 14 15 A 1 1 0 0 0 13 14 z "
       />
</svg>

<svg xmlns="http://www.w3.org/2000/svg" width="16" height="16"><path d="M1 2a1 1 0 0 0-1 1v10a1 1 0 0 0 1 1h6.051a1.41 1.41 0 0 1 .012-.762c.065-.226.15-.39.232-.547L7.65 12H2V5.152l5.4 4.148c.214.161.476.213.729.18.129-.595.337-1.179.67-1.711C9.421 6.774 10.569 6 12 6c.292 0 .569.04.836.1.479.127.842.289 1.164.477.498.313.909.727 1.201 1.193.488.78.719 1.668.799 2.543V3a1 1 0 0 0-1-1H1zm2.668 2h8.664L8 7.25 3.668 4zM12 7c-2.227 0-3.037 2.122-3.037 4.031 0 1.712-2.023 2.969-.201 2.969H13h2.24c1.822 0-.203-1.257-.203-2.969C15.037 9.122 14.227 7 12 7zm1 7a1 1 0 1 0 0 2 1 1 0 1 0 0-2z" fill="#6d6d70"/></svg>
